X:35
T: Jimmy Kelly's Banjo
C: BB
R: jig
Q: 1/8=320
M: 6/8
L: 1/8
K: D
D|"D"A,DF DFA | "D"dcd "A7"efg | "D"afd "A7"gec | "Bm"dBA FBA |
"D"A,DF DFA | "D"dcd "A7"efg | "Bm"aba "Em"gec | "A"edc "D"d2 :|
e|"D"a^ga "A7"=gec | "D"edc def | "G"gab "D"a2 f | "Em"gdB "A"A2 e |
"D"afd "A7"gec | "F#m7"Ace "Bm"f2 g | "D"aba "Em"gec | "A"edc "D"d2 :|
